X: 66
T: No_6_If_You_Turned_Back.krn
N: Derived from No_6_If_You_Turned_Back.krn
%%abc-version 2.0
%%abcx-abcm2ps-target-version 5.9.1 (29 Sep 2008)
%%abc-creator hum2abc beta
%%abcx-conversion-date 2019/03/15 08:27:55
%%humdrum-veritas 902550398
%%humdrum-veritas-data 2715677398
%%linebreak <none>
%%barnumbers 0
L: 1/8
M: 2/4
K: D clef=treble
[K:clef=treble][M:2/4]A2-A3/B/ | 
A2(AF) | 
FA AA | 
B/A3/ AF/ z/ | 
FF E/E3/ | 
[M:5/8]D4z | 
[M:2/4]E/D/D D3/E/ | 
D3/A,/ DD | 
A,A, A,A,- | 
A,4 | 
A,2z2 | 
FA AA/A/ | 
B/A3/ AF/ z/ | 
FA A3//A//A/A/ | 
B/A3/ AF | 
[M:3/4]FF E/E3/ D3/D/ | 
[M:2/4]D3z | 
F/D/D/D/ DD | 
[M:3/4]D2DA, D (3F/E/D/ | 
[M:2/4]A,2A,A, | 
A,4 | 
A,2z2 |]  



